icons/sip-fill.svg

<svg viewBox="0 0 24 24" fill="currentColor" xmlns="http://www.w3.org/2000/svg">
    <path d="M13.9602 6.50108L16.7886 3.67265C17.1791 3.28213 17.8123 3.28213 18.2028 3.67265L20.3241 5.79397C20.7146 6.1845 20.7146 6.81766 20.3241 7.20819L17.4957 10.0366L19.2635 11.8044L17.8492 13.2186L10.7782 6.14753L12.1924 4.73331L13.9602 6.50108ZM10.7782 8.97596L15.0208 13.2186L7.24264 20.9968H3V16.7541L10.7782 8.97596Z"/>
</svg>

<svg xmlns="http://www.w3.org/2000/svg" viewBox="0 0 24 24">
    <g>
        <path fill="none" d="M0 0h24v24H0z"/>
        <path d="M13.96 6.504l2.829-2.828a1 1 0 0 1 1.414 0l2.121 2.121a1 1 0 0 1 0 1.414l-2.828 2.829 1.767 1.768-1.414 1.414-7.07-7.071 1.413-1.414 1.768 1.767zM10.778 8.98l4.243 4.243L7.243 21H3v-4.243l7.778-7.778z"/>
    </g>
</svg>
